!!!OTL: 43b. Edelmann und Schaefer.
!!!ARE: Europa, Mitteleuropa, Deutschland, Uckermark
!!!SCT: E0043A
!!!TXL: @@DE
!!!YEM: Copyright 1995, estate of Helmut Schaffrath.
**kern	**text
*ICvox	*
*clefG2	*
*M6/8	*
*k[]	*
*C:	*
!LO:TX:a:t=Etwas bewegt.	!
!LO:TX:a:t=Aus der Uckermark (Granʒow rc.)	!
{8g	Es
=1	=1
8gL	trieb
8ccJ	.
8cc	ein
8cc	Schä-
8b	-fer
8a	den
=2	=2
8aL	Berg
8gJ	.
8g	hin-
4g}	-an,
{8g	der
=3	=3
8.a	E-
16a	-del-
8a	-mann
8aL	ihm
8gJ	.
8f	ent-
=4	=4
8fL	-ge-
8eJ	.
8e	-gen
4e}	kam,
{8g	bei
=5	=5
8g	di-
8e	-del-
8g	-dum
4c	da,
8g	hei
=6	=6
8g	hop-
8e	-ſa-
8g	-ſa-
4c}	-ſa!
{8g	Der
=7	=7
8.cc	E-
16cc	-del-
8cc	-mann
8eeL	ihm
8ddJ	.
8dd	ent-
=8	=8
8.bL	-ge-
16aJ	.
8b	-gen
4cc}	kam.
==	==
!!!AGN: erzaehlendes Volks - Lied, Ritter - Sage, Ballade ?
!!!ONB: ESAC (Essen Associative Code) Database: ERK1
!!!AMT: compound duple
!!!AIN: vox
!!!EED: Helmut Schaffrath
!!!EEV: 1.0
!!!GTL: Ritter- und Raeubersagen
!!!URL-scan: https://rosdok.uni-rostock.de/mcrviewer/recordIdentifier/rosdok_ppn745146120/iview2/phys_0216.iview2?x=-250.1417780126858&y=1501.2882682398194&scale=0.5392104374602399&rotation=0&layout=singlePageLayout&logicalDiv=log_0009
!!!ENC: Anna Maria Matuszewska
!!!EEV: 2024/11/25
*-	*-
